icons/exponent/exponent-2.svg

<svg width="14" height="14" viewBox="0 0 14 14" fill="none"
    xmlns="http://www.w3.org/2000/svg">
    <path d="M6.86553 5.0188C7.13157 4.94489 7.40683 5.10042 7.48076 5.36645C7.5546 5.63249 7.39914 5.90779 7.13311 5.98169C5.15209 6.53231 5.09028 9.27097 6.94756 9.95825L7.13311 10.0188L7.22783 10.0549C7.43483 10.1609 7.54542 10.4013 7.48076 10.634C7.40671 10.8999 7.13148 11.0556 6.86553 10.9817C5.98801 10.7378 5.36711 10.2023 4.99932 9.54614C4.63148 10.2021 4.01145 10.7379 3.13408 10.9817C2.86812 11.0556 2.59289 10.8999 2.51885 10.634C2.45419 10.4013 2.56478 10.1609 2.77178 10.0549L2.8665 10.0188L3.05205 9.95825C4.90947 9.27102 4.84766 6.53225 2.8665 5.98169C2.60048 5.90779 2.44503 5.63248 2.51885 5.36645C2.59278 5.10042 2.86804 4.94489 3.13408 5.0188C4.0112 5.26254 4.63146 5.79766 4.99932 6.45337C5.36712 5.79747 5.98826 5.26261 6.86553 5.0188Z" fill="red"/>
    <path d="M8.93945 3.35334C9.52943 2.76353 10.4859 2.77876 11.0674 3.36017C11.3412 3.63413 11.5 4.00981 11.5 4.40119C11.5 4.95731 11.1858 5.4658 10.6885 5.71466L10.1182 5.99982H11C11.2761 5.99982 11.4999 6.22376 11.5 6.49982C11.5 6.77596 11.2761 6.99982 11 6.99982H9C8.72386 6.99982 8.5 6.77596 8.5 6.49982C8.50007 6.00407 8.78021 5.55063 9.22363 5.32892L10.2412 4.82013C10.3997 4.74066 10.5 4.57854 10.5 4.40119C10.5 4.27904 10.4495 4.15648 10.3604 4.0672C10.1609 3.86785 9.83753 3.86951 9.64648 4.06037L9.35352 4.35334C9.15825 4.5486 8.84175 4.5486 8.64648 4.35334C8.45131 4.15807 8.45125 3.84154 8.64648 3.6463L8.93945 3.35334Z" fill="green"/>
</svg>

<svg xmlns="http://www.w3.org/2000/svg" width="14" height="14" fill="none" viewBox="0 0 14 14"><path fill="red" d="M6.866 5.019a.5.5 0 1 1 .267.963c-1.98.55-2.043 3.289-.185 3.976l.185.06.095.037a.5.5 0 0 1-.362.927c-.878-.244-1.499-.78-1.867-1.436-.368.656-.988 1.192-1.865 1.436a.5.5 0 0 1-.362-.927l.095-.036.185-.06c1.857-.688 1.796-3.427-.186-3.977a.5.5 0 1 1 .268-.963c.877.244 1.497.779 1.865 1.434.368-.656.99-1.19 1.867-1.434"/><path fill="green" d="M8.94 3.353a1.51 1.51 0 0 1 2.127.007 1.47 1.47 0 0 1-.379 2.354l-.57.286H11a.5.5 0 0 1 0 1H9a.5.5 0 0 1-.5-.5c0-.496.28-.95.724-1.171l1.017-.509a.47.47 0 0 0 .12-.753.51.51 0 0 0-.715-.007l-.292.293a.5.5 0 1 1-.708-.707z"/></svg>
